dist/svg/icons/keyboard.svg

<svg height="16" width="16" xmlns="http://www.w3.org/2000/svg" viewBox="0 0 16 16">
  <path d="M10 5h-1v-1h1v1z m-7 1h-1v1h1v-1z m5-2h-1v1h1v-1z m-4 0H2v1h2v-1z m8 7h2v-1H12v1zM8 7h1v-1h-1v1zM4 10H2v1h2v-1z m8-6h-1v1h1v-1z m2 0h-1v1h1v-1zM12 9h2V6H12v3z m4-6v9c0 0.55-0.45 1-1 1H1c-0.55 0-1-0.45-1-1V3c0-0.55 0.45-1 1-1h14c0.55 0 1 0.45 1 1z m-1 0H1v9h14V3zM6 7h1v-1h-1v1z m0-3h-1v1h1v-1zM4 7h1v-1h-1v1z m1 4h6v-1H5v1z m5-4h1v-1h-1v1z m-7 1h-1v1h1v-1z m5 0v1h1v-1h-1z m-2 0v1h1v-1h-1z m-1 0h-1v1h1v-1z m5 1h1v-1h-1v1z" />
</svg>

<svg xmlns="http://www.w3.org/2000/svg" width="16" height="16" viewBox="0 0 16 16"><path d="M10 5H9V4h1v1zM3 6H2v1h1V6zm5-2H7v1h1V4zM4 4H2v1h2V4zm8 7h2v-1h-2v1zM8 7h1V6H8v1zm-4 3H2v1h2v-1zm8-6h-1v1h1V4zm2 0h-1v1h1V4zm-2 5h2V6h-2v3zm4-6v9c0 .55-.45 1-1 1H1c-.55 0-1-.45-1-1V3c0-.55.45-1 1-1h14c.55 0 1 .45 1 1zm-1 0H1v9h14V3zM6 7h1V6H6v1zm0-3H5v1h1V4zM4 7h1V6H4v1zm1 4h6v-1H5v1zm5-4h1V6h-1v1zM3 8H2v1h1V8zm5 0v1h1V8H8zM6 8v1h1V8H6zM5 8H4v1h1V8zm5 1h1V8h-1v1z"/></svg>
